X:1
T:The Impossible Dream
T:The Impossible Dream
T:The Quest
T:Mitch Leigh
T:Joe Darion
C:Mitch Leigh
Z:Joe Darion
%%score 1 { ( 2 3 ) | 4 }
L:1/8
Q:1/4=100
M:9/8
K:D
V:1 treble nm="Voice"
V:2 treble nm="Piano"
V:3 treble 
V:4 bass 
V:1
"^Tempo di Bolero" z9 | z8 ||[K:bass] F,, |: A,,3- A,,F,,G,, A,,G,,F,, | A,,6- A,,zA,, | %5
w: ||1.~To|dream _ the im- pos- si- ble|dream, _ to|
w: ||(2.~To)|right _ the un- right- a- ble|wrong, _ to|
 B,,3- B,,G,,A,, B,,A,,G,, | B,,6- B,,zB,, | C,3- C,F,,G,, A,,B,,C, | D, G,,2- G,,3- G,,2 A,, |1 %9
w: fight _ the un beat- a- ble|foe. _ To|bear _ with un- bear- a- ble|sor- row, _ _ to|
w: love _ pure and chaste from a-|far. _ To|try _ when your arms are too|wea- ry, _ _ to|
 B,,3- B,,E,,F,, G,,A,,B,, | C,6- C,2 F,, :|2 B,,3- B,,G,,A,, B,,C,D, || E,6 D,E,D, || %13
w: run _ where the brave dare not|go. _ 2.~To|reach _ the un- reach- a- ble|star! This is my|
w: ||||
 F,3- F,2 D, D,E,D, | F,3- F,2 D, D,E,D, | F, C,2- C,2 D, E,D,C, | E,3- E,2 B,, D,C,B,, | %17
w: quest, _ to fol- low that|star. _ No mat- ter how|hope- less, _ no mat- ter how|far; _ To fight for the|
w: ||||
 D,3- D,B,,C, D,C,B,, | D,3- D,D,E, F,E,D, | F,E,D, F,D,E, F,G,F, | E,6 z E,F, | %21
w: right _ with- out ques- tion or|pause. _ To be will- ing to|march in- to hell for a heav- en- ly|cause! And I|
w: ||||
 G,3- G,F,E, G,F,E, | G,3- G,F,G, F,E,D, | C,6- C,C,D, | E,3- E,D,C, E,D,C, | E,3- E,D,E, D,C,B,, | %26
w: know, _ if I'll on- ly be|true _ to this glo- ri- ous|quest, _ that my|heart _ will lie peace- ful and|calm, _ when I'm laid to my|
w: |||||
 _B,,6 z F,,G,, | A,,3- A,,F,,G,, A,,G,,F,, | A,,6- A,,G,,A,, | B,,3- B,,G,,A,, B,,A,,G,, | %30
w: rest. And the|world _ will be bet- ter for|this: _ That one|man, _ scorned and cov- ered with|
w: ||||
 B,,6- B,,(A,,B,,) | C,3- C,F,,G,, A,,B,,C, | D, G,,2- G,,3- G,,2 D, | F,3- F,D,E, F,E,D, | %34
w: scars, _ Still _|strove _ with his last ounce of|cour- age, _ _ To|reach _ the un- reach- a- ble|
w: ||||
 D,6- D,3- | D,2 z z2 z z2 z |] %36
w: stars. _|_|
w: ||
V:2
!f! z (3[FA]/E/[FA]/-[EFA]- [FA][FA][FA] !>![FA]!>![FA]!>![FA] | %1
 z (3[FA]/E/[FA]/-[EFA]- [FA][FA][FA] !>![FA]!>![FA] || (F |: A3- AFG AGF | A6- A)z(A | %5
 B3- BGA BAG | B6- B)z(!>!B | c3- cFG ABc | [GBd] G2- G3- G2) (A |1 B3- BEF GAB | c6- c2) (F :|2 %11
 (B3-) BGA Bcd || e6) (ded || f3- f2) (d ded | f3- f2) (d ded | f c2- c2) (d edc | e3- e2) (B dcB | %17
 d3- d)(Bc) dcB | d3- d!<(!(!tenuto!d!tenuto!e !tenuto!f!tenuto!e!tenuto!d)!<)! | %19
!f! (!tenuto![Adf]!tenuto!e!tenuto![FAd]) (!tenuto![Fdf]!tenuto![Fd]!tenuto![Fe]) (!tenuto![Bdf]!tenuto![Bdg]!tenuto![Bdf]) | %20
 e6- e!>!e!>!f |!ff! g3- g(!tenuto!f!tenuto!e !>!g!>!f!>!e) | %22
 g3- g(!tenuto!f!tenuto!g!>(! !>!f!>!e!>!d)!>)! | c6- c!>!c!>!d | e3- edc !>!e!>!d!>!c | %25
 e3- ed!>(!e !>!d!>!c!>!B!>)! | _B6 z (FG |!mf! A3- AFG AGF | A6- A)!>!G!>!A | (B3- BGA BAG | %30
 B6- B)!>!A!>!B | (c3- cFG ABc | [GBd] G2- G3- G2) (d | %33
 f3- f)(!tenuto!d!tenuto!e !tenuto!f!tenuto!e!tenuto!d) | d6- d3 | [FAd]2 z !>!D2 z z2 z |] %36
V:3
 x3 E3 DDD | x3 E3 DD || x |: z (3F/E/F/-F F z z F z z | %4
 z (3F/E/F/-F- F[EF][EF] !>![DF]!>![DF]!>![DF] | z (3G/F/G/-G- G z z G z z | %6
 z (3G/F/G/-G- G[FG][FG] !>![EG]!>![EG]!>![EG] | z (3A/F/A/-A- A z z z z [EA] | %8
 z (3E/D/E/-E- ED[B,D] !>![B,D]!>![B,D] z |1 z (3G/E/G/-G- G z z EFG | %10
 z (3A/G/A/-A- A[GA][GA] !>![GA]!>![GA] z :|2 z (3G/E/G/-G- G z F GzB || %12
 z (3c/G/c/-c- c[Ac][Gc] [GB][GB][GB] || z (3d/A/d/-d- dAF !>![FA]!>![FA]!>![FA] | %14
 z (3d/B/d/-d- dBF F3 | z (3A/F/A/-A- AAF !>![FA]!>![FA]!>![FA] | z (3B/G/B/-B- B[GB]G E3 | %17
 z (3B/F/B/-B- B z z !>!F!>![DF]!>![DF] | z (3_B/=F/B/-B- B z z d z z | x9 | %20
 z (3=c/G/c/-c- cc!<(![Gc]- [Gc]!>![Gc]!>![Gc]!<)! | z (3e/B/e/-e- eB-B !>!B!>![GB]!>![GB] | %22
 z (3e/=c/e/-e- ec[ce] !>![Gc]!>![Gc]!>!G | z (3^A/F/A/-A- A[FA][FA] !>![FA]!>![FA]!>![FA] | %24
 z (3B/G/B/-B- B[GB][GB] !>![GB]!>![GB]!>![GB] | z [^EB][EB]- [EB]2 [EB] !>![EB]!>!E!>!E | %26
 z (3G/D/G/-G- G[DG][DG] C3 | z (3F/E/F/-F- F z z F z z | %28
 z (3F/E/F/-F- F[EF][EF] !>![DF]!>!D!>![DF] | z (3G/F/G/-G- G z z G z z | %30
 z (3G/F/G/-G- G[FG][FG] !>![EG]!>!E!>![EG] | z (3A/F/A/-A- A z z z z [EA] | %32
 z (3E/D/E/-E- ED[B,D]- [B,D]2 [GB] | %33
 [Ad](3d/A/d/-d- [Ad]!tenuto![FA]!tenuto![FA] !tenuto![GB]!tenuto![GB]!tenuto![GB] | %34
 z (3A/F/A/-A- A(3A/F/A/-A !>![FA]!>![FA]!>![FA] | x9 |] %36
V:4
 D,2 z A,3 A,,3 | D,2 z A,3 A,, z || z |: D,2 z A,3 A,,3 | D,2 z A,3 A,,3 | G,,2 z D,3 D,,3 | %6
 G,,2 z D,3 D,,3 | F,,2 z C,3 F,,3 | E,,2 z E,3 B,,2 z |1 E,,2 z B,,3 E,3 | A,,2 z E,3 A,2 z :|2 %11
 E,,2 z B,,3 E,3 || A,,2 z E,3 A,,3 || D,,2 z A,,3 D,3 | B,,2 z F,3 B,3 | F,2 z C,3 F,,3 | %16
 G,,2 z D,3 G,3 | B,,2 z F,3 B,3 | _B,,2 z =F,3 B,,3 | A,,3 ^A,,3 B,,3 | =C,2 z G,3 =C3 | %21
 E,2 z B,,3 E,,3 | =C,2 z G,,3 C,3 | F,,2 z C,3 F,3 | G,,2 z D,3 G,3 | C,2 z G,,3 C,3 | %26
 G,,2 z D,3 A,,3 | D,2 z A,3 A,,3 | D,2 z A,3 A,,3 | G,,2 z D,3 D,,3 | G,,2 z D,3 D,,3 | %31
 F,,2 z C,3 F,,3 | E,,2 z E,3 B,,2 z | A,,3 A,"^rall." z z A,,3 |"^a tempo" D,3 A,3 A,,3 | %35
 D,2 z !>![D,,D,]2 z z2 z |] %36

